logos/niantic-supporter.svg

<svg xmlns="http://www.w3.org/2000/svg" role="img" viewBox="24.17 23.42 166.91 212.16"><title>Niantic (supporter) logo</title><g fill="#100f0d"><path d="M39.835938 224.636719L29.625 214.09375 29.585938 214.042969 28.238281 214.042969 28.238281 231.644531 31.90625 231.644531 31.90625 221.164062 42 231.59375 42.046875 231.644531 43.5 231.644531 43.5 214.042969 39.835938 214.042969 39.835938 224.636719M56.691406 231.644531L60.34375 231.644531 60.34375 214.03125 56.691406 214.03125 56.691406 231.644531M83.457031 225.222656L78.742188 225.28125 81.152344 219.097656zM89.660156 231.628906L82.890625 214.144531 82.851562 214.042969 79.289062 214.042969 72.5625 231.414062 72.472656 231.644531 76.386719 231.644531 77.386719 228.996094 84.753906 228.996094 85.753906 231.644531 89.660156 231.628906M115.617188 231.644531L117.0625 231.644531 117.0625 214.042969 113.40625 214.042969 113.40625 224.636719 103.195312 214.09375 103.148438 214.042969 101.808594 214.042969 101.808594 231.644531 105.472656 231.644531 105.472656 221.164062 115.566406 231.59375 115.617188 231.644531M144.226562 214.042969L129.414062 214.042969 129.414062 217.601562 134.988281 217.601562 134.988281 231.644531 138.648438 231.644531 138.648438 217.601562 144.226562 217.601562 144.226562 214.042969M156.441406 231.644531L160.089844 231.644531 160.089844 214.03125 156.441406 214.03125 156.441406 231.644531M184.679688 226.527344C183.613281 227.414062 182.339844 227.859375 180.882812 227.859375 179.433594 227.859375 178.246094 227.402344 177.363281 226.492188 176.476562 225.585938 176.023438 224.335938 176.015625 222.789062 176.015625 221.339844 176.464844 220.136719 177.347656 219.21875 178.230469 218.292969 179.414062 217.824219 180.863281 217.8125 182.289062 217.8125 183.574219 218.269531 184.679688 219.164062L184.792969 219.257812 187.234375 216.5 187.109375 216.390625C185.386719 214.832031 183.285156 214.042969 180.863281 214.042969 178.46875 214.042969 176.429688 214.898438 174.808594 216.574219 173.1875 218.253906 172.359375 220.351562 172.351562 222.8125 172.351562 225.324219 173.175781 227.441406 174.800781 229.113281 176.429688 230.78125 178.464844 231.632812 180.863281 231.644531 183.28125 231.644531 185.382812 230.855469 187.109375 229.300781L187.234375 229.191406 184.792969 226.425781 184.679688 226.527344M146.679688 85.210938L147.488281 82.394531C148.425781 80.015625 149.117188 77.523438 149.574219 74.953125 161.996094 81.824219 166.324219 86.058594 167.261719 87.691406 164.890625 88.589844 157.636719 87.875 146.679688 85.210938zM120.632812 77.339844C115.976562 75.707031 111.042969 73.871094 105.867188 71.824219 97.730469 68.601562 90.417969 65.410156 83.988281 62.367188 90.613281 60.292969 98.019531 58.183594 106.160156 56.136719 111.128906 54.882812 115.867188 53.777344 120.363281 52.808594 120.367188 52.828125 120.375 52.851562 120.386719 52.875 128.304688 51.183594 136.988281 49.550781 144.925781 48.453125 144.921875 48.445312 144.921875 48.445312 144.917969 48.4375 156.925781 46.84375 164.984375 46.753906 167.902344 47.710938 166.019531 49.492188 160.238281 53.199219 148.828125 57.816406 148.523438 56.695312 148.171875 55.597656 147.777344 54.515625 140.210938 54.59375 132.230469 55.683594 121.941406 58.300781 122.398438 60.589844 122.667969 62.96875 122.667969 65.433594 122.667969 69.671875 121.933594 73.691406 120.632812 77.339844zM76.925781 58.90625C76.179688 58.53125 75.453125 58.15625 74.734375 57.785156 76.226562 50.902344 79.652344 45 84.273438 41.007812 82.070312 46.816406 81.78125 53.988281 81.78125 57.339844 80.132812 57.859375 78.511719 58.382812 76.925781 58.90625zM68.84375 54.609375C59.191406 49.210938 53.398438 44.859375 52.058594 42.554688 53.769531 42.277344 58.867188 42.324219 73.347656 45.867188 71.503906 48.574219 69.984375 51.503906 68.84375 54.609375zM90.625 37.082031C93.039062 36.105469 95.609375 35.554688 98.289062 35.554688 106.351562 35.554688 113.476562 40.367188 117.910156 47.761719 113.523438 48.722656 109.128906 49.765625 104.816406 50.851562 97.988281 52.570312 91.363281 54.410156 85.117188 56.308594 85.203125 50.347656 86.324219 40.675781 90.625 37.082031zM87.539062 103.128906L92.96875 144.949219C92.3125 144.632812 91.6875 144.34375 91.105469 144.085938L76.300781 94.0625C79.460938 97.683594 83.257812 100.761719 87.539062 103.128906zM91.191406 104.953125L91.164062 104.96875C96.195312 106.683594 99.113281 110.820312 100.007812 114.898438 100.042969 115.515625 100.121094 116.101562 100.269531 116.605469 100.273438 116.675781 100.292969 116.742188 100.296875 116.804688L100.34375 116.804688C100.699219 117.859375 101.363281 118.546875 102.546875 118.546875L114.09375 118.546875C115.277344 118.546875 115.945312 117.859375 116.304688 116.804688L116.351562 116.804688C116.359375 116.734375 116.375 116.652344 116.386719 116.582031 116.523438 116.082031 116.601562 115.515625 116.636719 114.902344 117.527344 110.824219 120.457031 106.683594 125.484375 104.96875L125.457031 104.953125C125.527344 104.917969 125.605469 104.882812 125.679688 104.847656L120.933594 142.441406C111.644531 135.210938 100.625 130.566406 100.246094 130.375L102.300781 151.351562C101.667969 150.699219 101.023438 150.015625 100.261719 149.40625 99.121094 148.492188 97.855469 147.65625 96.578125 146.898438L91.125 104.921875C91.148438 104.929688 91.171875 104.941406 91.191406 104.953125zM117.480469 171.105469C111.570312 170.894531 105.246094 170.597656 99.671875 170.367188 99.453125 169.074219 99.089844 165.355469 98.601562 162.355469L103.347656 162.054688 103.566406 164.277344C103.589844 164.621094 103.679688 165.609375 103.679688 165.609375L103.691406 165.605469 103.695312 165.667969 118.351562 164.324219C117.921875 167.03125 117.617188 170.28125 117.480469 171.105469zM103.558594 135.515625C105.742188 136.589844 107.730469 137.445312 111.199219 139.9375 114.664062 142.429688 115.617188 143.355469 115.617188 143.363281 117.070312 151.796875 112.746094 157.015625 108.582031 159.667969 108.429688 159.460938 108.308594 159.269531 108.246094 159.152344 108.179688 159.035156 107.246094 157.332031 105.503906 155.0625 105.496094 155.035156 105.476562 155.023438 105.472656 155.003906L104.75 147.726562 103.5625 135.582031zM88.683594 159.480469L86.980469 146.167969C89.316406 146.714844 93.09375 148.464844 94.445312 149.292969 94.742188 149.480469 95.027344 149.664062 95.316406 149.859375 96.207031 150.457031 97.066406 151.101562 97.828125 151.8125 98.214844 152.175781 98.574219 152.539062 98.933594 152.90625 100.546875 154.539062 101.878906 156.148438 102.902344 157.496094 103.1875 157.871094 103.460938 158.234375 103.695312 158.554688zM150.164062 69.058594C150.175781 68.734375 150.199219 68.414062 150.199219 68.085938 150.199219 66.457031 150.066406 64.859375 149.871094 63.277344 175.453125 53.113281 174.269531 48.070312 173.878906 46.414062 173.683594 45.578125 173.125 44.386719 171.59375 43.457031 167.347656 40.886719 155.714844 41.308594 141.441406 43.386719 133.785156 33.835938 121.808594 27.671875 108.324219 27.671875 95.914062 27.671875 84.761719 32.890625 77.09375 41.175781 51.847656 34.78125 48.253906 37.011719 46.789062 39.875 46.363281 40.710938 46 42.082031 46.683594 43.882812 48.3125 48.179688 56.351562 53.980469 67.285156 60.007812 67.117188 60.8125 66.984375 61.625 66.863281 62.445312 64.523438 63.324219 62.292969 64.203125 60.203125 65.074219 42.519531 72.445312 40.871094 76.574219 41.59375 79.636719 41.945312 81.136719 42.84375 84.925781 55.492188 84.925781 59.171875 84.925781 63.847656 84.601562 69.789062 83.8125 69.890625 84.050781 69.992188 84.300781 70.101562 84.535156L87.164062 142.488281C84.589844 141.5 82.824219 141.117188 82.824219 141.117188L85.34375 163.101562 85.539062 163.085938 85.542969 163.1875 93.652344 162.679688 95.59375 170.207031C94.277344 170.148438 95.167969 170.101562 94.617188 170.074219 94.351562 170.070312 93.613281 169.542969 93.230469 169.265625 92.386719 168.664062 92.269531 168.03125 91.140625 167.992188L82.996094 167.617188C82.996094 167.617188 82.949219 168.714844 82.941406 169.074219 82.796875 173.25 84.707031 181.300781 89.957031 181.949219 90.398438 182.007812 90.996094 182.046875 91.722656 182.105469 93.496094 186.796875 94.855469 186.863281 95.472656 186.886719 95.605469 186.894531 95.78125 186.898438 95.949219 186.894531 99.246094 186.847656 106.578125 185.386719 114.320312 183.859375 116.523438 183.421875 126.277344 181.835938 128.089844 180.703125 130.640625 179.128906 132.214844 174.417969 132.617188 174.039062 133.566406 173.519531 141.023438 170.882812 141.652344 170.621094 142.429688 170.289062 142.660156 170.21875 142.507812 169.796875 142.269531 169.164062 142.070312 169.417969 141.109375 169.625 140.871094 169.675781 132.777344 171.265625 131.9375 171.503906 131.679688 171.496094 131.617188 171.496094 131.535156 171.496094 131.445312 171.488281 131.347656 171.488281 130.640625 171.460938 129.519531 171.421875 124.109375 171.34375 121.398438 171.25L123.472656 163.855469 136.84375 162.625 136.789062 162.566406 137 162.546875C137 162.546875 136.3125 161.175781 136.089844 160.769531 135.972656 160.5625 134.222656 156.910156 130.726562 152.335938 130.726562 152.335938 129.542969 150.921875 127.921875 149.136719L143.507812 96.285156C143.429688 96.265625 143.355469 96.25 143.273438 96.230469 142.3125 96 141.289062 95.734375 140.273438 95.476562L125.277344 146.328125C124.839844 145.882812 124.402344 145.449219 123.96875 145.035156L129.261719 103.0625C133.019531 100.960938 136.40625 98.308594 139.308594 95.230469 136.539062 94.503906 133.613281 93.675781 130.566406 92.757812L130.566406 92.753906C129.507812 92.4375 128.421875 92.097656 127.332031 91.757812L127.332031 91.765625C123.265625 90.492188 119.015625 89.074219 114.648438 87.535156 110.324219 92.347656 104.59375 95.304688 98.289062 95.304688 95.234375 95.304688 92.316406 94.597656 89.625 93.335938L87.476562 76.816406C86.257812 76.292969 85.066406 75.78125 83.917969 75.28125L85.984375 91.195312C80.433594 87.195312 76.28125 80.585938 74.667969 72.738281 71.878906 73.644531 69.347656 74.488281 67.136719 75.265625 67.34375 76.378906 67.613281 77.472656 67.914062 78.554688 54.527344 80.230469 48.851562 79.222656 47.222656 78.40625 49.28125 75.757812 59.613281 70.550781 76.5 64.804688 79.492188 66.285156 82.601562 67.761719 85.78125 69.207031 85.726562 69.222656 85.675781 69.242188 85.621094 69.257812 85.921875 69.390625 86.242188 69.527344 86.550781 69.660156L86.53125 69.554688C92.195312 72.121094 98.0625 74.601562 103.847656 76.890625 108.96875 78.917969 146 93.332031 163.628906 93.328125 168.070312 93.328125 171.289062 92.414062 172.441406 90.152344 173.464844 88.144531 176.082031 82.972656 150.164062 69.058594"/></g></svg>

<svg xmlns="http://www.w3.org/2000/svg" viewBox="24.17 23.42 166.91 212.16">
	<path d="m39.836 224.637-10.211-10.543-.04-.051h-1.347v17.602h3.668v-10.48L42 231.593l.047.05H43.5v-17.601h-3.664v10.594m16.855 7.008h3.653V214.03H56.69v17.614m26.766-6.422-4.715.058 2.41-6.183zm6.203 6.406-6.77-17.484-.038-.102h-3.563l-6.727 17.371-.09.23h3.915l1-2.648h7.367l1 2.649 3.906-.016m25.957.016h1.445v-17.602h-3.656v10.594l-10.21-10.543-.048-.051h-1.34v17.602h3.665v-10.48l10.093 10.429.051.05m28.61-17.601h-14.813v3.559h5.574v14.043h3.66v-14.043h5.579v-3.559m12.214 17.602h3.649V214.03h-3.649v17.614m28.239-5.118c-1.067.887-2.34 1.332-3.797 1.332-1.45 0-2.637-.457-3.52-1.367-.886-.906-1.34-2.156-1.347-3.703 0-1.45.449-2.652 1.332-3.57.882-.926 2.066-1.395 3.515-1.406 1.426 0 2.711.457 3.817 1.351l.113.094 2.441-2.758-.125-.11c-1.722-1.558-3.824-2.347-6.246-2.347-2.394 0-4.433.855-6.054 2.531-1.621 1.68-2.45 3.778-2.457 6.238 0 2.512.824 4.63 2.449 6.301 1.629 1.668 3.664 2.52 6.062 2.532 2.418 0 4.52-.79 6.246-2.344l.125-.11-2.441-2.765-.113.101m-38-141.316.808-2.816a38.805 38.805 0 0 0 2.086-7.442c12.422 6.871 16.75 11.106 17.688 12.738-2.371.899-9.625.184-20.582-2.48zm-26.047-7.871a401.526 401.526 0 0 1-14.766-5.516c-8.137-3.222-15.449-6.414-21.879-9.457a404.368 404.368 0 0 1 22.172-6.23 417.477 417.477 0 0 1 14.203-3.328c.004.02.012.043.024.066 7.918-1.691 16.601-3.324 24.539-4.422l-.008-.016c12.008-1.593 20.066-1.683 22.984-.726-1.882 1.781-7.664 5.488-19.074 10.105a41.058 41.058 0 0 0-1.05-3.3c-7.567.078-15.548 1.168-25.837 3.785.457 2.289.727 4.668.727 7.133 0 4.238-.734 8.257-2.035 11.906zM76.926 58.906c-.746-.375-1.473-.75-2.192-1.12 1.493-6.884 4.918-12.786 9.54-16.778-2.204 5.808-2.493 12.98-2.493 16.332-1.648.52-3.27 1.043-4.855 1.566zm-8.082-4.297c-9.653-5.398-15.446-9.75-16.785-12.054 1.71-.278 6.808-.23 21.289 3.312a40.072 40.072 0 0 0-4.504 8.742zm21.781-17.527c2.414-.977 4.984-1.527 7.664-1.527 8.063 0 15.188 4.812 19.621 12.207-4.387.96-8.781 2.004-13.094 3.09a423.836 423.836 0 0 0-19.699 5.457c.086-5.961 1.207-15.633 5.508-19.227zm-3.086 66.047 5.43 41.82a63.928 63.928 0 0 0-1.864-.863L76.301 94.062a41.687 41.687 0 0 0 11.238 9.067zm3.652 1.824-.027.016c5.031 1.715 7.95 5.851 8.844 9.93.035.617.113 1.203.262 1.706.003.07.023.137.027.2h.047c.355 1.054 1.02 1.742 2.203 1.742h11.547c1.183 0 1.851-.688 2.21-1.742h.048c.007-.07.023-.153.035-.223.136-.5.215-1.066.25-1.68.89-4.078 3.82-8.218 8.847-9.933l-.027-.016c.07-.035.148-.07.223-.105l-4.746 37.593c-9.29-7.23-20.309-11.875-20.688-12.066l2.055 20.977c-.633-.653-1.278-1.336-2.04-1.946-1.14-.914-2.406-1.75-3.683-2.508l-5.453-41.976c.023.008.047.02.066.031zm26.29 66.152c-5.91-.21-12.235-.507-17.81-.738-.218-1.293-.581-5.012-1.07-8.012l4.747-.3.218 2.222c.024.344.114 1.332.114 1.332l.011-.004.004.063 14.657-1.344c-.43 2.707-.735 5.957-.872 6.781zm-13.922-35.59c2.183 1.075 4.171 1.93 7.64 4.423 3.465 2.492 4.418 3.417 4.418 3.425 1.453 8.434-2.87 13.653-7.035 16.305a4.707 4.707 0 0 1-.336-.516c-.066-.117-1-1.82-2.742-4.09-.008-.027-.027-.039-.031-.058l-.723-7.277-1.188-12.145zM88.684 159.48l-1.704-13.312c2.336.547 6.114 2.297 7.465 3.125.297.187.582.371.871.566.891.598 1.75 1.243 2.512 1.953.387.364.746.727 1.106 1.094a47.051 47.051 0 0 1 3.968 4.59c.285.375.559.738.793 1.059zm61.48-90.421c.012-.325.035-.645.035-.973 0-1.629-.133-3.227-.328-4.809 25.582-10.164 24.399-15.207 24.008-16.863-.195-.836-.754-2.027-2.285-2.957-4.246-2.57-15.88-2.148-30.153-.07-7.656-9.551-19.632-15.715-33.117-15.715-12.41 0-23.562 5.219-31.23 13.504-25.246-6.395-28.84-4.164-30.305-1.301-.426.836-.789 2.207-.105 4.008 1.629 4.297 9.668 10.097 20.601 16.125-.168.804-.3 1.617-.422 2.437-2.34.88-4.57 1.758-6.66 2.63-17.683 7.37-19.332 11.5-18.61 14.562.352 1.5 1.25 5.289 13.9 5.289 3.679 0 8.355-.324 14.296-1.114.102.239.203.489.313.723l17.062 57.953c-2.574-.988-4.34-1.37-4.34-1.37l2.52 21.984.195-.016.004.101 8.11-.507 1.94 7.527c-1.316-.059-.425-.105-.976-.133-.265-.004-1.004-.531-1.387-.808-.843-.602-.96-1.235-2.09-1.274l-8.144-.375s-.047 1.098-.055 1.457c-.144 4.176 1.766 12.227 7.016 12.875.441.059 1.04.098 1.766.156 1.773 4.692 3.132 4.758 3.75 4.782.132.008.308.011.476.008 3.297-.047 10.63-1.508 18.371-3.036 2.203-.437 11.957-2.023 13.77-3.156 2.55-1.574 4.125-6.285 4.527-6.664.95-.52 8.406-3.156 9.035-3.418.778-.332 1.008-.402.856-.824-.238-.633-.438-.379-1.399-.172-.238.05-8.332 1.64-9.172 1.879-.257-.008-.32-.008-.402-.008-.09-.008-.187-.008-.894-.035-1.121-.04-6.532-.117-9.243-.211l2.075-7.395 13.37-1.23-.054-.059.211-.02s-.688-1.37-.91-1.776c-.117-.208-1.867-3.86-5.363-8.434 0 0-1.184-1.414-2.805-3.2l15.586-52.85c-.078-.02-.153-.036-.235-.056-.96-.23-1.984-.496-3-.753l-14.996 50.851a57.894 57.894 0 0 0-1.308-1.293l5.293-41.972a41.976 41.976 0 0 0 10.047-7.833 252.963 252.963 0 0 1-8.743-2.472v-.004c-1.058-.317-2.144-.656-3.234-.996v.008a379.878 379.878 0 0 1-12.684-4.23c-4.324 4.812-10.054 7.769-16.359 7.769-3.055 0-5.973-.707-8.664-1.97l-2.148-16.519a790.6 790.6 0 0 1-3.559-1.535l2.066 15.914c-5.55-4-9.703-10.61-11.316-18.457-2.79.907-5.32 1.75-7.531 2.528.207 1.113.476 2.207.777 3.289-13.387 1.675-19.062.668-20.691-.149 2.058-2.648 12.39-7.855 29.277-13.601a313.702 313.702 0 0 0 9.281 4.402c-.054.016-.105.035-.16.05.3.134.621.27.93.403l-.02-.105a389.64 389.64 0 0 0 17.317 7.336c5.12 2.027 42.152 16.441 59.78 16.437 4.442 0 7.661-.914 8.813-3.176 1.024-2.007 3.641-7.18-22.277-21.093" fill="#100f0d"/>
</svg>
